icons/speech-bubble-plus-outline.svg

<svg xmlns="http://www.w3.org/2000/svg" width="24" height="24" viewBox="0 0 24 24">
  <path d="M15,3 C19.5522847,3 23,6.44771525 23,11 C23,15.5522847 19.5522847,19 15,19 L15,19 L14.492,19 L14.4215793,19.0906275 C13.7103901,19.9663638 12.948642,20.6393906 11.8907103,21.256749 L11.8907103,21.256749 L11.5946555,21.4238497 L11.2369286,21.6140163 L10.9086251,21.7821926 C9.57755795,22.4597178 8,21.4937799 8,20 L8,20 L8,19 C4.27285013,19 1,15.3634999 1,11 C1,6.5377729 4.49099359,3 9,3 L9,3 Z M15,5 L9,5 C5.60156611,5 3,7.6364271 3,11 C3,14.3031668 5.42714987,17 8,17 L8,17 L9,17 C9.55228475,17 10,17.4477153 10,18 L10,18 L10,19.999 L10.3113445,19.8411503 L10.6455572,19.6634269 C11.7740931,19.0468761 12.4641772,18.4017399 13.194037,17.4080341 C13.3824481,17.1515119 13.6817197,17 14,17 L14,17 L15,17 C18.4477153,17 21,14.4477153 21,11 C21,7.55228475 18.4477153,5 15,5 L15,5 Z M12,7 C12.5128358,7 12.9355072,7.38604019 12.9932723,7.88337887 L13,8 L12.999,10 L15,10 C15.5522847,10 16,10.4477153 16,11 C16,11.5128358 15.6139598,11.9355072 15.1166211,11.9932723 L15,12 L12.999,12 L13,14 C13,14.5522847 12.5522847,15 12,15 C11.4871642,15 11.0644928,14.6139598 11.0067277,14.1166211 L11,14 L10.999,12 L9,12 C8.44771525,12 8,11.5522847 8,11 C8,10.4871642 8.38604019,10.0644928 8.88337887,10.0067277 L9,10 L10.999,10 L11,8 C11,7.44771525 11.4477153,7 12,7 Z"/>
</svg>

<svg xmlns="http://www.w3.org/2000/svg" viewBox="0 0 24 24">
  <path d="M15 3c4.55 0 8 3.45 8 8s-3.45 8-8 8h-.5l-.08.1a8.85 8.85 0 0 1-2.53 2.16l-.3.16-.35.2-.33.16A2 2 0 0 1 8 20v-1c-3.73 0-7-3.64-7-8 0-4.46 3.5-8 8-8zm0 2H9c-3.4 0-6 2.64-6 6 0 3.3 2.43 6 5 6h1a1 1 0 0 1 1 1v2l.31-.16.34-.18a7.16 7.16 0 0 0 2.54-2.25A1 1 0 0 1 14 17h1c3.45 0 6-2.55 6-6s-2.55-6-6-6zm-3 2a1 1 0 0 1 1 .88V10h2a1 1 0 0 1 .12 2H13v2a1 1 0 0 1-2 .12V12H9a1 1 0 0 1-.12-2H11V8a1 1 0 0 1 1-1z"/>
</svg>
